src/pages/elements/images/keep-it-simple-right-5-mobile.svg

<svg xmlns="http://www.w3.org/2000/svg" viewBox="0 0 288 288"><g fill="none" fill-rule="evenodd"><path fill="#FFF" d="M0 0h288v288H0z"/><path d="M30.8 112h-5.6v-1.4h1.96V99.44H25.2v-1.4h5.6v1.4h-1.96v11.16h1.96v1.4zm9.5 0v-1.68h-.08c-.62 1.28-1.6 1.92-3.02 1.92-2.58 0-4.2-2.1-4.2-5.4 0-3.3 1.62-5.4 4.2-5.4 1.42 0 2.48.62 3.02 1.92h.08V97.2h1.6V112h-1.6zm-2.66-1.2c1.46 0 2.66-.76 2.66-2.1v-3.84c0-1.14-1.2-1.98-2.66-1.98-1.8 0-2.92 1.24-2.92 3.08v1.76c0 1.84 1.12 3.08 2.92 3.08zm11.54 1.44c-2.8 0-4.64-2.12-4.64-5.4 0-3.28 1.84-5.4 4.64-5.4 2.76 0 4.46 2.12 4.46 5.04v.76h-7.42v.48c0 1.78 1.14 3.12 3.06 3.12 1.3 0 2.3-.64 2.84-1.78l1.14.82c-.66 1.4-2.14 2.36-4.08 2.36zm0-9.46c-1.74 0-2.96 1.32-2.96 3.12v.14h5.7v-.22c0-1.82-1.1-3.04-2.74-3.04zm8.7 9.22h-1.6v-10.32h1.6v1.68h.08c.5-1.16 1.38-1.92 2.92-1.92 2.12 0 3.46 1.44 3.46 3.94V112h-1.6v-6.34c0-1.84-.8-2.78-2.34-2.78-1.28 0-2.52.64-2.52 1.96V112zm14.04 0h-2c-1.1 0-1.7-.7-1.7-1.7v-7.22h-1.7v-1.4h.96c.68 0 .9-.24.9-.94v-1.92h1.44v2.86h2.26v1.4h-2.26v7.52h2.1v1.4zm3.54-12.74c-.68 0-.98-.36-.98-.9v-.26c0-.54.3-.9.98-.9.68 0 .98.36.98.9v.26c0 .54-.3.9-.98.9zm-.8 12.74v-10.32h1.6V112h-1.6zm5.56 0v-8.92h-1.68v-1.4h1.68V99.6c0-1.42.74-2.4 2.26-2.4h1.56v1.4h-2.22v3.08h5.78V112H86v-8.92h-4.18V112h-1.6zm6.58-12.74c-.68 0-.98-.36-.98-.9v-.26c0-.54.3-.9.98-.9.68 0 .98.36.98.9v.26c0 .54-.3.9-.98.9zm8.08 12.98c-2.8 0-4.64-2.12-4.64-5.4 0-3.28 1.84-5.4 4.64-5.4 2.76 0 4.46 2.12 4.46 5.04v.76h-7.42v.48c0 1.78 1.14 3.12 3.06 3.12 1.3 0 2.3-.64 2.84-1.78l1.14.82c-.66 1.4-2.14 2.36-4.08 2.36zm0-9.46c-1.74 0-2.96 1.32-2.96 3.12v.14h5.7v-.22c0-1.82-1.1-3.04-2.74-3.04zm8.7 9.22h-1.6v-10.32h1.6v1.9h.1c.36-.98 1.3-1.9 2.98-1.9h.62v1.6h-.94c-1.72 0-2.76.74-2.76 1.72v7zM54.8 137.056H42.368V172h-4.704v-34.944H25.232v-4.144H54.8v4.144zm8.232-.728c-1.904 0-2.744-1.008-2.744-2.52v-.728c0-1.512.84-2.52 2.744-2.52 1.904 0 2.744 1.008 2.744 2.52v.728c0 1.512-.84 2.52-2.744 2.52zM60.792 172v-28.896h4.48V172h-4.48zm25.984 0h-5.6c-3.08 0-4.76-1.96-4.76-4.76v-20.216h-4.76v-3.92h2.688c1.904 0 2.52-.672 2.52-2.632v-5.376h4.032v8.008h6.328v3.92h-6.328v21.056h5.88V172zm16.408 0h-3.976c-3.08 0-4.76-1.96-4.76-4.648V130.56h4.48v37.52h4.256V172zm17.36.672c-7.84 0-12.992-5.936-12.992-15.12s5.152-15.12 12.992-15.12c7.728 0 12.488 5.936 12.488 14.112v2.128h-20.776v1.344c0 4.984 3.192 8.736 8.568 8.736 3.64 0 6.44-1.792 7.952-4.984l3.192 2.296c-1.848 3.92-5.992 6.608-11.424 6.608zm0-26.488c-4.872 0-8.288 3.696-8.288 8.736v.392h15.96v-.616c0-5.096-3.08-8.512-7.672-8.512zM154.088 172v-39.088h16.072c6.44 0 10.416 3.976 10.416 10.08 0 5.824-3.752 7.896-6.328 8.288v.336c2.8.168 7.672 2.576 7.672 9.072 0 6.44-4.312 11.312-10.08 11.312h-17.752zm4.704-18.144v14h11.592c4.032 0 6.496-2.128 6.496-6.048v-1.904c0-3.92-2.464-6.048-6.496-6.048h-11.592zm0-16.8v12.768H169.6c3.696 0 5.936-1.96 5.936-5.432v-1.904c0-3.472-2.24-5.432-5.936-5.432h-10.808zm33.656-.728c-1.904 0-2.744-1.008-2.744-2.52v-.728c0-1.512.84-2.52 2.744-2.52 1.904 0 2.744 1.008 2.744 2.52v.728c0 1.512-.84 2.52-2.744 2.52zM190.208 172v-28.896h4.48V172h-4.48zm38.36 3.192c0 5.936-4.704 8.68-14 8.68-9.016 0-12.712-2.576-12.712-7.112 0-3.136 1.736-4.816 4.592-5.6v-.616c-1.624-.784-2.576-2.072-2.576-4.032 0-2.912 2.072-4.312 4.984-5.04v-.224c-3.416-1.624-5.432-4.816-5.432-8.848 0-5.88 4.312-9.968 10.864-9.968 2.072 0 3.92.392 5.488 1.12v-.504c0-2.24.952-3.864 3.36-3.864h4.312v3.92h-5.488v1.848c2.072 1.792 3.304 4.368 3.304 7.448 0 5.88-4.312 9.968-10.92 9.968-.952 0-1.96-.112-2.8-.28-1.904.504-3.808 1.456-3.808 3.248 0 1.736 1.792 2.184 4.424 2.184h6.16c7.168 0 10.248 2.912 10.248 7.672zm-4.2.336c0-2.296-1.512-3.808-5.992-3.808h-9.632c-1.848.84-2.688 2.128-2.688 3.92 0 2.52 1.736 4.592 6.272 4.592h4.144c4.984 0 7.896-1.568 7.896-4.704zm-10.024-16.744c3.808 0 6.216-1.792 6.216-5.6v-1.568c0-3.808-2.408-5.6-6.216-5.6-3.808 0-6.216 1.792-6.216 5.6v1.568c0 3.808 2.408 5.6 6.216 5.6z" fill="#3D3D3D"/></g></svg>

<?xml version="1.0" encoding="UTF-8"?>
<svg width="288px" height="288px" viewBox="0 0 288 288" version="1.1" xmlns="http://www.w3.org/2000/svg" xmlns:xlink="http://www.w3.org/1999/xlink">
    <!-- Generator: Sketch 51.2 (57519) - http://www.bohemiancoding.com/sketch -->
    <title>Keep it Simple - Right 5</title>
    <desc>Created with Sketch.</desc>
    <defs></defs>
    <g id="Page-1" stroke="none" stroke-width="1" fill="none" fill-rule="evenodd">
        <g id="Type-Basics-Copy" transform="translate(-672.000000, -12429.000000)">
            <g id="Keep-it-Simple---Right-5" transform="translate(672.000000, 12429.000000)">
                <rect id="Rectangle-16-Copy-155" fill="#FFFFFF" x="0" y="0" width="288" height="288"></rect>
                <path d="M30.8,112 L25.2,112 L25.2,110.6 L27.16,110.6 L27.16,99.44 L25.2,99.44 L25.2,98.04 L30.8,98.04 L30.8,99.44 L28.84,99.44 L28.84,110.6 L30.8,110.6 L30.8,112 Z M40.3,112 L40.3,110.32 L40.22,110.32 C39.6,111.6 38.62,112.24 37.2,112.24 C34.62,112.24 33,110.14 33,106.84 C33,103.54 34.62,101.44 37.2,101.44 C38.62,101.44 39.68,102.06 40.22,103.36 L40.3,103.36 L40.3,97.2 L41.9,97.2 L41.9,112 L40.3,112 Z M37.64,110.8 C39.1,110.8 40.3,110.04 40.3,108.7 L40.3,104.86 C40.3,103.72 39.1,102.88 37.64,102.88 C35.84,102.88 34.72,104.12 34.72,105.96 L34.72,107.72 C34.72,109.56 35.84,110.8 37.64,110.8 Z M49.18,112.24 C46.38,112.24 44.54,110.12 44.54,106.84 C44.54,103.56 46.38,101.44 49.18,101.44 C51.94,101.44 53.64,103.56 53.64,106.48 L53.64,107.24 L46.22,107.24 L46.22,107.72 C46.22,109.5 47.36,110.84 49.28,110.84 C50.58,110.84 51.58,110.2 52.12,109.06 L53.26,109.88 C52.6,111.28 51.12,112.24 49.18,112.24 Z M49.18,102.78 C47.44,102.78 46.22,104.1 46.22,105.9 L46.22,106.04 L51.92,106.04 L51.92,105.82 C51.92,104 50.82,102.78 49.18,102.78 Z M57.88,112 L56.28,112 L56.28,101.68 L57.88,101.68 L57.88,103.36 L57.96,103.36 C58.46,102.2 59.34,101.44 60.88,101.44 C63,101.44 64.34,102.88 64.34,105.38 L64.34,112 L62.74,112 L62.74,105.66 C62.74,103.82 61.94,102.88 60.4,102.88 C59.12,102.88 57.88,103.52 57.88,104.84 L57.88,112 Z M71.92,112 L69.92,112 C68.82,112 68.22,111.3 68.22,110.3 L68.22,103.08 L66.52,103.08 L66.52,101.68 L67.48,101.68 C68.16,101.68 68.38,101.44 68.38,100.74 L68.38,98.82 L69.82,98.82 L69.82,101.68 L72.08,101.68 L72.08,103.08 L69.82,103.08 L69.82,110.6 L71.92,110.6 L71.92,112 Z M75.46,99.26 C74.78,99.26 74.48,98.9 74.48,98.36 L74.48,98.1 C74.48,97.56 74.78,97.2 75.46,97.2 C76.14,97.2 76.44,97.56 76.44,98.1 L76.44,98.36 C76.44,98.9 76.14,99.26 75.46,99.26 Z M74.66,112 L74.66,101.68 L76.26,101.68 L76.26,112 L74.66,112 Z M80.22,112 L80.22,103.08 L78.54,103.08 L78.54,101.68 L80.22,101.68 L80.22,99.6 C80.22,98.18 80.96,97.2 82.48,97.2 L84.04,97.2 L84.04,98.6 L81.82,98.6 L81.82,101.68 L87.6,101.68 L87.6,112 L86,112 L86,103.08 L81.82,103.08 L81.82,112 L80.22,112 Z M86.8,99.26 C86.12,99.26 85.82,98.9 85.82,98.36 L85.82,98.1 C85.82,97.56 86.12,97.2 86.8,97.2 C87.48,97.2 87.78,97.56 87.78,98.1 L87.78,98.36 C87.78,98.9 87.48,99.26 86.8,99.26 Z M94.88,112.24 C92.08,112.24 90.24,110.12 90.24,106.84 C90.24,103.56 92.08,101.44 94.88,101.44 C97.64,101.44 99.34,103.56 99.34,106.48 L99.34,107.24 L91.92,107.24 L91.92,107.72 C91.92,109.5 93.06,110.84 94.98,110.84 C96.28,110.84 97.28,110.2 97.82,109.06 L98.96,109.88 C98.3,111.28 96.82,112.24 94.88,112.24 Z M94.88,102.78 C93.14,102.78 91.92,104.1 91.92,105.9 L91.92,106.04 L97.62,106.04 L97.62,105.82 C97.62,104 96.52,102.78 94.88,102.78 Z M103.58,112 L101.98,112 L101.98,101.68 L103.58,101.68 L103.58,103.58 L103.68,103.58 C104.04,102.6 104.98,101.68 106.66,101.68 L107.28,101.68 L107.28,103.28 L106.34,103.28 C104.62,103.28 103.58,104.02 103.58,105 L103.58,112 Z M54.8,137.056 L42.368,137.056 L42.368,172 L37.664,172 L37.664,137.056 L25.232,137.056 L25.232,132.912 L54.8,132.912 L54.8,137.056 Z M63.032,136.328 C61.128,136.328 60.288,135.32 60.288,133.808 L60.288,133.08 C60.288,131.568 61.128,130.56 63.032,130.56 C64.936,130.56 65.776,131.568 65.776,133.08 L65.776,133.808 C65.776,135.32 64.936,136.328 63.032,136.328 Z M60.792,172 L60.792,143.104 L65.272,143.104 L65.272,172 L60.792,172 Z M86.776,172 L81.176,172 C78.096,172 76.416,170.04 76.416,167.24 L76.416,147.024 L71.656,147.024 L71.656,143.104 L74.344,143.104 C76.248,143.104 76.864,142.432 76.864,140.472 L76.864,135.096 L80.896,135.096 L80.896,143.104 L87.224,143.104 L87.224,147.024 L80.896,147.024 L80.896,168.08 L86.776,168.08 L86.776,172 Z M103.184,172 L99.208,172 C96.128,172 94.448,170.04 94.448,167.352 L94.448,130.56 L98.928,130.56 L98.928,168.08 L103.184,168.08 L103.184,172 Z M120.544,172.672 C112.704,172.672 107.552,166.736 107.552,157.552 C107.552,148.368 112.704,142.432 120.544,142.432 C128.272,142.432 133.032,148.368 133.032,156.544 L133.032,158.672 L112.256,158.672 L112.256,160.016 C112.256,165 115.448,168.752 120.824,168.752 C124.464,168.752 127.264,166.96 128.776,163.768 L131.968,166.064 C130.12,169.984 125.976,172.672 120.544,172.672 Z M120.544,146.184 C115.672,146.184 112.256,149.88 112.256,154.92 L112.256,155.312 L128.216,155.312 L128.216,154.696 C128.216,149.6 125.136,146.184 120.544,146.184 Z M154.088,172 L154.088,132.912 L170.16,132.912 C176.6,132.912 180.576,136.888 180.576,142.992 C180.576,148.816 176.824,150.888 174.248,151.28 L174.248,151.616 C177.048,151.784 181.92,154.192 181.92,160.688 C181.92,167.128 177.608,172 171.84,172 L154.088,172 Z M158.792,153.856 L158.792,167.856 L170.384,167.856 C174.416,167.856 176.88,165.728 176.88,161.808 L176.88,159.904 C176.88,155.984 174.416,153.856 170.384,153.856 L158.792,153.856 Z M158.792,137.056 L158.792,149.824 L169.6,149.824 C173.296,149.824 175.536,147.864 175.536,144.392 L175.536,142.488 C175.536,139.016 173.296,137.056 169.6,137.056 L158.792,137.056 Z M192.448,136.328 C190.544,136.328 189.704,135.32 189.704,133.808 L189.704,133.08 C189.704,131.568 190.544,130.56 192.448,130.56 C194.352,130.56 195.192,131.568 195.192,133.08 L195.192,133.808 C195.192,135.32 194.352,136.328 192.448,136.328 Z M190.208,172 L190.208,143.104 L194.688,143.104 L194.688,172 L190.208,172 Z M228.568,175.192 C228.568,181.128 223.864,183.872 214.568,183.872 C205.552,183.872 201.856,181.296 201.856,176.76 C201.856,173.624 203.592,171.944 206.448,171.16 L206.448,170.544 C204.824,169.76 203.872,168.472 203.872,166.512 C203.872,163.6 205.944,162.2 208.856,161.472 L208.856,161.248 C205.44,159.624 203.424,156.432 203.424,152.4 C203.424,146.52 207.736,142.432 214.288,142.432 C216.36,142.432 218.208,142.824 219.776,143.552 L219.776,143.048 C219.776,140.808 220.728,139.184 223.136,139.184 L227.448,139.184 L227.448,143.104 L221.96,143.104 L221.96,144.952 C224.032,146.744 225.264,149.32 225.264,152.4 C225.264,158.28 220.952,162.368 214.344,162.368 C213.392,162.368 212.384,162.256 211.544,162.088 C209.64,162.592 207.736,163.544 207.736,165.336 C207.736,167.072 209.528,167.52 212.16,167.52 L218.32,167.52 C225.488,167.52 228.568,170.432 228.568,175.192 Z M224.368,175.528 C224.368,173.232 222.856,171.72 218.376,171.72 L208.744,171.72 C206.896,172.56 206.056,173.848 206.056,175.64 C206.056,178.16 207.792,180.232 212.328,180.232 L216.472,180.232 C221.456,180.232 224.368,178.664 224.368,175.528 Z M214.344,158.784 C218.152,158.784 220.56,156.992 220.56,153.184 L220.56,151.616 C220.56,147.808 218.152,146.016 214.344,146.016 C210.536,146.016 208.128,147.808 208.128,151.616 L208.128,153.184 C208.128,156.992 210.536,158.784 214.344,158.784 Z" id="Identifier-Title-Big" fill="#3D3D3D"></path>
            </g>
        </g>
    </g>
</svg>
